X:218
T:Micho Russell's
R:reel
M:4/4
L:1/8
K:Gmaj
B3 G ABAG|FDAD BDAF|DGGF G2 eg|fddc ABcA|
B3 G ABAG|FDAD BDAF|DGGF G2 eg|fdcA AG G2:|
dggf g2 ag|fdde fdcA|dggf g2 fg|a2 ga bg g2|
bggf g2 ag|fdde f3 g|a2 ag abag|fddc ABcA:|

